images/icons/v2/profile-circle-outline-24.svg

<svg height="24" viewBox="0 0 24 24" width="24" xmlns="http://www.w3.org/2000/svg"><path d="m12 1a11 11 0 1 0 11 11 11 11 0 0 0 -11-11zm0 1.5a9.481 9.481 0 0 1 7.607 15.166 5.972 5.972 0 0 0 -4.451-2.156 7.21 7.21 0 0 0 1.844-4.863c0-3.314-2.239-5.647-5-5.647s-5 2.333-5 5.647a7.21 7.21 0 0 0 1.844 4.863 5.972 5.972 0 0 0 -4.451 2.156 9.481 9.481 0 0 1 7.607-15.166zm-3.5 8.147c0-2.364 1.505-4.147 3.5-4.147s3.5 1.783 3.5 4.147c0 2.54-1.668 4.853-3.5 4.853s-3.5-2.313-3.5-4.853zm-3.092 8.178a4.472 4.472 0 0 1 3.592-1.825h6a4.472 4.472 0 0 1 3.592 1.825 9.46 9.46 0 0 1 -13.184 0z"/></svg>

<svg xmlns="http://www.w3.org/2000/svg" width="24" height="24" viewBox="0 0 24 24"><title>profile-circle-outline-24</title><path d="M12,1A11,11,0,1,0,23,12,11,11,0,0,0,12,1Zm0,1.5a9.481,9.481,0,0,1,7.607,15.166,5.972,5.972,0,0,0-4.451-2.156A7.21,7.21,0,0,0,17,10.647C17,7.333,14.761,5,12,5S7,7.333,7,10.647A7.21,7.21,0,0,0,8.844,15.51a5.972,5.972,0,0,0-4.451,2.156A9.481,9.481,0,0,1,12,2.5ZM8.5,10.647C8.5,8.283,10.005,6.5,12,6.5s3.5,1.783,3.5,4.147c0,2.54-1.668,4.853-3.5,4.853S8.5,13.187,8.5,10.647ZM5.408,18.825A4.472,4.472,0,0,1,9,17h6a4.472,4.472,0,0,1,3.592,1.825,9.46,9.46,0,0,1-13.184,0Z"/></svg>
